__todo__/web.dev-icon.svg

<svg height="218" preserveAspectRatio="xMidYMid" viewBox="0 0 256 218" width="256" xmlns="http://www.w3.org/2000/svg"><path d="m226.859029 160.159256h-86.308226c-.969755 0-2.909266 0-3.879021.969755l-64.9736089 51.397034c-.9697553.969755-.9697553 1.939511 0 2.909266 0 .969755.9697554.969755 1.9395107.969755h154.1911002c15.516086 0 29.092661-13.576575 28.122905-30.062415-.969755-15.516086-14.54633-26.183395-29.09266-26.183395" fill="#00c9db"/><path d="m156.445093 106.017815c-.969755-7.7580428-4.848777-15.5160856-10.667309-20.3648624l-99.8848007-79.51993859c-12.6068195-9.69755349-30.0624158-7.7580428-39.75996929 4.84877679-9.69755349 12.6068195-7.7580428 30.0624158 4.84877679 39.7599693l72.7316511 58.1853209-72.7316511 58.185321c-12.60681959 9.697553-14.54633028 27.15315-4.84877679 39.759969 9.69755349 12.60682 27.15314979 14.54633 39.75996929 4.848777l99.8848007-81.459449c6.788288-5.818532 10.667309-13.576575 10.667309-22.304373z" fill="#0d55ff"/><path d="m255.951689 188.282161c0 15.516086-12.606819 28.122905-28.122905 28.122905-15.516085 0-28.122905-12.606819-28.122905-28.122905 0-15.516085 12.60682-28.122905 28.122905-28.122905 15.516086 0 28.122905 12.60682 28.122905 28.122905" fill="#7000f2"/></svg>

<?xml version="1.0" encoding="UTF-8"?>
<svg width="256px" height="218px" viewBox="0 0 256 218" version="1.1" xmlns="http://www.w3.org/2000/svg" xmlns:xlink="http://www.w3.org/1999/xlink" preserveAspectRatio="xMidYMid">
    <g>
        <path d="M226.859029,160.159256 L140.550803,160.159256 C139.581048,160.159256 137.641537,160.159256 136.671782,161.129011 L71.6981731,212.526045 C70.7284178,213.4958 70.7284178,214.465556 71.6981731,215.435311 C71.6981731,216.405066 72.6679285,216.405066 73.6376838,216.405066 L227.828784,216.405066 C243.34487,216.405066 256.921445,202.828491 255.951689,186.342651 C254.981934,170.826565 241.405359,160.159256 226.859029,160.159256" fill="#00C9DB"></path>
        <path d="M156.445093,106.017815 C155.475338,98.2597722 151.596316,90.5017294 145.777784,85.6529526 L45.8929833,6.13301401 C33.2861638,-3.56453948 15.8305675,-1.62502879 6.13301401,10.9817908 C-3.56453948,23.5886103 -1.62502879,41.0442066 10.9817908,50.7417601 L83.7134419,108.927081 L10.9817908,167.112402 C-1.62502879,176.809955 -3.56453948,194.265552 6.13301401,206.872371 C15.8305675,219.479191 33.2861638,221.418701 45.8929833,211.721148 L145.777784,130.261699 C152.566072,124.443167 156.445093,116.685124 156.445093,107.957326 L156.445093,106.017815" fill="#0D55FF"></path>
        <path d="M255.951689,188.282161 C255.951689,203.798247 243.34487,216.405066 227.828784,216.405066 C212.312699,216.405066 199.705879,203.798247 199.705879,188.282161 C199.705879,172.766076 212.312699,160.159256 227.828784,160.159256 C243.34487,160.159256 255.951689,172.766076 255.951689,188.282161" fill="#7000F2"></path>
    </g>
</svg>
